dist/img/svg/chemistry.svg

<svg width="34" height="49" viewBox="0 0 34 49" fill="none" xmlns="http://www.w3.org/2000/svg">
<path d="M31.6627 39.11V38.2229H34V37.0449H0V38.2229H0.01794V47.8267H0V48.9999H34V47.8267H31.6627V47.3028H2.38985V46.9188H2.35013V46.697H31.6627V46.202H2.36679V46.0188H2.35013V45.7954H2.36679V45.7134H31.6627V45.0353H2.31425V44.9099H2.29631V44.6881H2.31425V44.5499H31.6627V43.9344H2.28734V43.4491H31.6627V42.8657H2.28734V42.3804H31.6627V41.7665H2.3386V41.2795H31.6627V40.664H2.31425V40.1787H31.6627V39.5969H2.31425V39.11H31.6627Z" fill="#368CBF"/>
<path d="M29.6929 35.6288H29.6801V29.5846H29.6929V28.8438H15.9407H3.41992V29.5846H5.22417V30.1069H28.1501V30.5938H5.22417V31.174H28.1501V31.6625H5.22417V32.2764H28.0976V32.5432H28.1309V32.7634H5.22417V33.3789H28.1232V33.5814H28.1309V33.8016H28.1232V33.8642H5.22417V34.446H28.1232V34.6887H28.1309V34.9104H28.1232V34.9313H5.22417V35.6288H3.41992V36.368H29.6929V35.6288Z" fill="#368CBF"/>
<path d="M8.08994 27.9341H25.903H25.9043C26.7398 27.9341 27.4433 27.415 27.8802 26.4732C28.4556 25.2342 28.4492 23.4552 27.861 22.1534L27.7085 21.816C27.1396 20.5399 25.8031 17.554 24.4217 15.0052C23.9565 14.1518 23.4901 13.3547 23.0685 12.6316C22.3919 11.4761 21.55 10.0394 21.5462 9.61349C21.5961 7.74125 21.5615 3.31056 21.5487 1.94295H22.4303V0H11.2807V1.94134H12.4493C12.4353 3.30895 12.4032 7.73804 12.4545 9.60867C12.4468 10.0378 11.6049 11.4745 10.9283 12.63C10.5067 13.3515 10.0403 14.1486 9.5764 15.002C8.19502 17.5492 6.85978 20.5367 6.28698 21.8127L6.13706 22.1502C5.5476 23.4536 5.54119 25.231 6.11655 26.4716C6.55224 27.415 7.25574 27.9341 8.08994 27.9341ZM7.25061 22.9441L7.4031 22.5986C7.96565 21.3419 9.28551 18.3993 10.6361 15.9068C11.0898 15.0679 11.5459 14.2868 11.9611 13.5781C13.1413 11.558 13.7564 10.4636 13.7333 9.55885C13.6872 7.89232 13.7115 4.01607 13.7269 2.3415H20.2699C20.284 4.01607 20.3096 7.89232 20.2622 9.55885C20.2366 10.462 20.8529 11.5596 22.0344 13.5781C22.447 14.2868 22.907 15.0679 23.3607 15.9068C24.7113 18.3977 26.0286 21.3419 26.5911 22.5986L26.7462 22.9441C27.1063 23.746 27.1178 24.9192 26.7718 25.6633C26.5668 26.1036 26.2746 26.327 25.9017 26.327H8.08994C7.71961 26.327 7.42617 26.1036 7.22114 25.6633C6.87644 24.9176 6.88669 23.746 7.25061 22.9441Z" fill="#368CBF"/>
<path d="M9.13656 25.9271H10.2514H14.3891H19.6045H23.7704H24.8622C25.3555 25.9271 25.7656 25.6218 26.0257 25.0674C26.3627 24.3377 26.3589 23.2931 26.0116 22.5266L25.9232 22.3257C25.5862 21.5784 24.802 19.8203 23.9908 18.3241C23.7807 17.9384 23.5756 17.5832 23.377 17.2441H10.6217C10.4231 17.5832 10.2194 17.94 10.0079 18.3241C9.19551 19.8203 8.40999 21.5768 8.07426 22.3257L7.98456 22.5266C7.6373 23.2931 7.63601 24.3361 7.97303 25.0674C8.23316 25.6202 8.64578 25.9271 9.13656 25.9271Z" fill="#368CBF"/>
</svg>

<svg width="34" height="49" viewBox="0 0 34 49" fill="none" xmlns="http://www.w3.org/2000/svg"><path d="M31.663 39.11v-.887H34v-1.178H0v1.178h.018v9.604H0V49h34v-1.173h-2.337v-.524H2.39v-.384h-.04v-.222h29.313v-.495H2.367v-.183H2.35v-.224h.017v-.082h29.296v-.678H2.314v-.125h-.018v-.222h.018v-.138h29.349v-.616H2.287v-.485h29.376v-.583H2.287v-.486h29.376v-.614H2.339v-.486h29.324v-.616H2.314v-.485h29.349v-.582H2.314v-.487h29.349zm-1.97-3.481h-.013v-6.044h.013v-.741H3.42v.74h1.804v.523H28.15v.487H5.224v.58H28.15v.489H5.224v.613h22.874v.267h.033v.22H5.224v.616h22.9v.202h.007v.22h-.008v.063H5.224v.582h22.9v.243h.007v.221h-.008v.021H5.224v.698H3.42v.739h26.273v-.74zM8.09 27.934h17.814c.836 0 1.54-.519 1.976-1.46.576-1.24.57-3.019-.019-4.32l-.152-.338c-.57-1.276-1.906-4.262-3.287-6.81-.466-.854-.932-1.651-1.354-2.374-.676-1.156-1.518-2.593-1.522-3.019.05-1.872.015-6.302.003-7.67h.881V0H11.28v1.941h1.17c-.015 1.368-.047 5.797.005 7.668-.008.429-.85 1.866-1.527 3.021-.421.721-.888 1.519-1.352 2.372-1.381 2.547-2.716 5.535-3.289 6.81l-.15.338c-.59 1.304-.596 3.081-.02 4.322.435.943 1.139 1.462 1.973 1.462zm-.84-4.99l.153-.345c.563-1.257 1.883-4.2 3.233-6.692a77.4 77.4 0 011.325-2.329c1.18-2.02 1.795-3.114 1.772-4.02-.046-1.666-.022-5.542-.006-7.216h6.543c.014 1.674.04 5.55-.008 7.217-.025.903.59 2 1.772 4.02.413.708.873 1.489 1.327 2.328 1.35 2.49 2.668 5.435 3.23 6.692l.155.345c.36.802.372 1.975.026 2.72-.205.44-.497.663-.87.663H8.09c-.37 0-.664-.223-.869-.664-.345-.745-.334-1.917.03-2.719z" fill="#368CBF"/><path d="M9.137 25.927h15.725c.494 0 .904-.305 1.164-.86.337-.73.333-1.774-.014-2.54l-.089-.201c-.337-.748-1.121-2.506-1.932-4.002a39.03 39.03 0 00-.614-1.08H10.622c-.199.34-.403.696-.614 1.08-.812 1.496-1.598 3.253-1.934 4.002l-.09.2c-.347.767-.348 1.81-.011 2.541.26.553.673.86 1.164.86z" fill="#368CBF"/></svg>
